setcps(40/60)

d1 $ n"[d2(3,8) f2(3,8) c2(3,8) a2]" # s "pluck" # gain 0.7

d2 $ n"[f3(3,7) a3(3,8) c3 e3(3,8)]" # s "gabor" # gain 0.8

d3 $ "bd*4 sn*2 hh*2" # gain 0.8

d4 $ mask "[110 101 111 010]"
$ note "f6" # "pluck" #gain 0.8
+ up "[-7 -5 0 2 3 -5 -7 2 0 -5 3 2]"
